X:1
T:Title
%%score { ( 1 4 ) | ( 2 3 ) }
L:1/8
Q:1/4=90
M:2/4
K:F
V:1 treble nm="Grand Piano"
V:4 treble 
V:2 bass 
V:3 bass 
V:1
 AA AA | B2 A2 | [CEG][CEG] [CF][EG] | [CFA]4 | AA GF | B2 A2 | GG [=B,FA][B,FG] | [EG]4 | %8
w: William~J.~Kirkpatrick * * *||||||||
 [EB][EB] [EA][EG] | [FA]2 [Fc]2 | [EB][EB] [EA][EG] | A4 | FF ED | CF [DG][DA] | [DB]2 .[G,CE]2 | %15
w: |||||||
 [F,A,CF]4 | [CFA][CGB] [CAc]2 | [CFA][CGB] [CAc]2 | [Fd][CFc] [CEB][CFA] | [FA]2 G2 | AA GF | %21
w: ||||||
 B[CGB] [CFA]2 | [B,DG][B,DG] [A,CF][G,CE] | [F,A,CF]4 | [CFA][CGB] [CAc]2 | [CFA][CGB] [CAc]2 | %26
w: |||||
 [Fd][CFc] [CEB][CFA] | [FA]2 G2 | AA GF | B[CGB] [CFA]2 | [B,DG][B,DG] [A,CF][G,CE] | [F,A,CF]4 |] %32
w: ||||||
V:2
 [F,CF][F,CF] [F,CF][F,CF] | [F,DF]2 [F,CF]2 | C,B,, A,,[C,C] | [F,,F,]4 | %4
 [F,CF][F,CF] [F,B,C][F,A,C] | [F,DF]2 [F,CF]2 | [G,CE][G,CE] [G,,G,][G,,G,] | [C,C]4 | %8
 [C,G,][C,G,] [C,G,][C,C] | [F,C]2 [F,A,]2 | [C,G,][C,G,] [C,G,][C,C] | [F,CF]4 | %12
 [F,A,C][F,A,C] [F,C][F,B,] | [F,A,][F,A,C] [B,,G,][A,,^F,] | [G,,G,]2 z B, | F,,4 | F,F, F,2 | %17
 F,F, F,2 | B,A, G,F, | z2 E2 | [F,CF][F,CF] [F,B,C][F,A,C] | [E,G,C]E, F,2 | B,,B,, C,C, | F,,4 | %24
 F,F, F,2 | F,F, F,2 | B,A, G,F, | z2 E2 | [F,CF][F,CF] [F,B,C][F,A,C] | [E,G,C]E, F,2 | %30
 B,,B,, C,C, | F,,4 |] %32
V:3
 x4 | x4 | x4 | x4 | x4 | x4 | x4 | x4 | x4 | x4 | x4 | x4 | x4 | x4 | z2 C,2 | x4 | x4 | x4 | x4 | %19
 C,4 | x4 | x4 | x4 | x4 | x4 | x4 | x4 | C,4 | x4 | x4 | x4 | x4 |] %32
V:4
 x4 | x4 | x4 | x4 | x4 | x4 | x4 | x4 | x4 | x4 | x4 | x4 | x4 | x4 | x4 | x4 | x4 | x4 | x4 | %19
 C4 | x4 | x4 | x4 | x4 | x4 | x4 | x4 | C4 | x4 | x4 | x4 | x4 |] %32

